icons/modern/ship.svg

<svg width="32" height="32" viewBox="0 0 32 32" fill="none" xmlns="http://www.w3.org/2000/svg">
<path d="M16.1253 9H29.99V15H13.99L15.5546 9.43999C15.6234 9.17999 15.8596 9 16.1253 9Z" fill="url(#paint0_linear_18_12457)"/>
<path d="M16.1253 9H29.99V15H13.99L15.5546 9.43999C15.6234 9.17999 15.8596 9 16.1253 9Z" fill="url(#paint1_linear_18_12457)"/>
<path d="M16.1253 9H29.99V15H13.99L15.5546 9.43999C15.6234 9.17999 15.8596 9 16.1253 9Z" fill="url(#paint2_linear_18_12457)"/>
<path d="M16.1253 9H29.99V15H13.99L15.5546 9.43999C15.6234 9.17999 15.8596 9 16.1253 9Z" fill="url(#paint3_linear_18_12457)"/>
<g filter="url(#filter0_i_18_12457)">
<path d="M21.99 12C21.99 13 21.99 11 21.99 12C21.99 11 21.53 11 20.99 11H15.1142L14.5565 13H20.99C21.53 12.99 21.99 13 21.99 12Z" fill="#56E6FF"/>
</g>
<path d="M29.99 16H3.20295C2.52808 16 2.0446 16.6418 2.2259 17.2837L3.98997 23H29.99V16Z" fill="url(#paint4_linear_18_12457)"/>
<path d="M29.99 16H3.20295C2.52808 16 2.0446 16.6418 2.2259 17.2837L3.98997 23H29.99V16Z" fill="url(#paint5_linear_18_12457)"/>
<path d="M29.99 16H3.20295C2.52808 16 2.0446 16.6418 2.2259 17.2837L3.98997 23H29.99V16Z" fill="url(#paint6_linear_18_12457)"/>
<path d="M3.98999 23L5.79099 29.2731C5.91039 29.7013 6.3084 30 6.75616 30H28.985C29.5422 30 29.99 29.5519 29.99 29.0043V23H3.98999Z" fill="url(#paint7_linear_18_12457)"/>
<path d="M3.98999 23L5.79099 29.2731C5.91039 29.7013 6.3084 30 6.75616 30H28.985C29.5422 30 29.99 29.5519 29.99 29.0043V23H3.98999Z" fill="url(#paint8_linear_18_12457)"/>
<path d="M29.99 16H4.98999V15.5859C4.98999 15.2626 5.24999 15 5.56999 15H29.99V16Z" fill="url(#paint9_linear_18_12457)"/>
<path d="M29.99 16H4.98999V15.5859C4.98999 15.2626 5.24999 15 5.56999 15H29.99V16Z" fill="url(#paint10_linear_18_12457)"/>
<g filter="url(#filter1_ii_18_12457)">
<path d="M30 27.6801C28.25 27.6801 28.25 28.8001 26.49 28.8001C24.74 28.8001 24.74 27.6801 22.98 27.6801C21.23 27.6801 21.23 28.8001 19.48 28.8001C17.73 28.8001 17.73 27.6801 15.98 27.6801C14.23 27.6801 14.23 28.8001 12.48 28.8001C10.73 28.8001 10.73 27.6801 8.97999 27.6801C7.22999 27.6801 7.22999 28.8001 5.48999 28.8001C3.73999 28.8001 3.73999 27.6801 1.98999 27.6801V30.0001H29.99L30 27.6801Z" fill="url(#paint11_linear_18_12457)"/>
</g>
<path d="M26.9804 4.41206C26.9804 4.18091 26.7977 4 26.5861 4H24.2556C23.6691 4 23.2009 4.28905 22.8229 4.84422L21.99 6H26.99V4.41206H26.9804Z" fill="url(#paint12_linear_18_12457)"/>
<path d="M26.9804 4.41206C26.9804 4.18091 26.7977 4 26.5861 4H24.2556C23.6691 4 23.2009 4.28905 22.8229 4.84422L21.99 6H26.99V4.41206H26.9804Z" fill="url(#paint13_linear_18_12457)"/>
<path d="M21.99 6L19.99 9H26.99V6H21.99Z" fill="url(#paint14_linear_18_12457)"/>
<path d="M21.99 6L19.99 9H26.99V6H21.99Z" fill="#E1D9E7"/>
<path d="M21.99 6L19.99 9H26.99V6H21.99Z" fill="url(#paint15_linear_18_12457)"/>
<path d="M21.99 6L19.99 9H26.99V6H21.99Z" fill="url(#paint16_linear_18_12457)"/>
<g filter="url(#filter2_i_18_12457)">
<rect x="13.74" y="18.7188" width="2" height="2" rx="0.5" fill="#63FAFF"/>
</g>
<g filter="url(#filter3_i_18_12457)">
<rect x="17.74" y="18.7188" width="2" height="2" rx="0.5" fill="#63FAFF"/>
</g>
<g filter="url(#filter4_i_18_12457)">
<rect x="21.74" y="18.7188" width="2" height="2" rx="0.5" fill="#63FAFF"/>
</g>
<g filter="url(#filter5_i_18_12457)">
<rect x="25.74" y="18.7188" width="2" height="2" rx="0.5" fill="#63FAFF"/>
</g>
<g filter="url(#filter6_i_18_12457)">
<rect x="23.74" y="11" width="2" height="2" rx="0.5" fill="#63FAFF"/>
</g>
<defs>
<filter id="filter0_i_18_12457" x="13.9565" y="11" width="8.03347" height="2.3" filterUnits="userSpaceOnUse" color-interpolation-filters="sRGB">
<feFlood flood-opacity="0" result="BackgroundImageFix"/>
<feBlend mode="normal" in="SourceGraphic" in2="BackgroundImageFix" result="shape"/>
<feColorMatrix in="SourceAlpha" type="matrix" values="0 0 0 0 0 0 0 0 0 0 0 0 0 0 0 0 0 0 127 0" result="hardAlpha"/>
<feOffset dx="-0.6" dy="0.3"/>
<feGaussianBlur stdDeviation="0.4"/>
<feComposite in2="hardAlpha" operator="arithmetic" k2="-1" k3="1"/>
<feColorMatrix type="matrix" values="0 0 0 0 0 0 0 0 0 0.623529 0 0 0 0 0.894118 0 0 0 1 0"/>
<feBlend mode="normal" in2="shape" result="effect1_innerShadow_18_12457"/>
</filter>
<filter id="filter1_ii_18_12457" x="1.38999" y="27.6801" width="28.61" height="2.91995" filterUnits="userSpaceOnUse" color-interpolation-filters="sRGB">
<feFlood flood-opacity="0" result="BackgroundImageFix"/>
<feBlend mode="normal" in="SourceGraphic" in2="BackgroundImageFix" result="shape"/>
<feColorMatrix in="SourceAlpha" type="matrix" values="0 0 0 0 0 0 0 0 0 0 0 0 0 0 0 0 0 0 127 0" result="hardAlpha"/>
<feOffset dx="-0.6" dy="0.6"/>
<feGaussianBlur stdDeviation="0.3"/>
<feComposite in2="hardAlpha" operator="arithmetic" k2="-1" k3="1"/>
<feColorMatrix type="matrix" values="0 0 0 0 0.384314 0 0 0 0 0.67451 0 0 0 0 0.996078 0 0 0 1 0"/>
<feBlend mode="normal" in2="shape" result="effect1_innerShadow_18_12457"/>
<feColorMatrix in="SourceAlpha" type="matrix" values="0 0 0 0 0 0 0 0 0 0 0 0 0 0 0 0 0 0 127 0" result="hardAlpha"/>
<feOffset dy="0.4"/>
<feGaussianBlur stdDeviation="0.2"/>
<feComposite in2="hardAlpha" operator="arithmetic" k2="-1" k3="1"/>
<feColorMatrix type="matrix" values="0 0 0 0 0.305882 0 0 0 0 0.556863 0 0 0 0 0.882353 0 0 0 1 0"/>
<feBlend mode="normal" in2="effect1_innerShadow_18_12457" result="effect2_innerShadow_18_12457"/>
</filter>
<filter id="filter2_i_18_12457" x="13.14" y="18.7188" width="2.6" height="2.4" filterUnits="userSpaceOnUse" color-interpolation-filters="sRGB">
<feFlood flood-opacity="0" result="BackgroundImageFix"/>
<feBlend mode="normal" in="SourceGraphic" in2="BackgroundImageFix" result="shape"/>
<feColorMatrix in="SourceAlpha" type="matrix" values="0 0 0 0 0 0 0 0 0 0 0 0 0 0 0 0 0 0 127 0" result="hardAlpha"/>
<feOffset dx="-0.6" dy="0.4"/>
<feGaussianBlur stdDeviation="0.5"/>
<feComposite in2="hardAlpha" operator="arithmetic" k2="-1" k3="1"/>
<feColorMatrix type="matrix" values="0 0 0 0 0 0 0 0 0 0.698039 0 0 0 0 0.964706 0 0 0 1 0"/>
<feBlend mode="normal" in2="shape" result="effect1_innerShadow_18_12457"/>
</filter>
<filter id="filter3_i_18_12457" x="17.14" y="18.7188" width="2.6" height="2.4" filterUnits="userSpaceOnUse" color-interpolation-filters="sRGB">
<feFlood flood-opacity="0" result="BackgroundImageFix"/>
<feBlend mode="normal" in="SourceGraphic" in2="BackgroundImageFix" result="shape"/>
<feColorMatrix in="SourceAlpha" type="matrix" values="0 0 0 0 0 0 0 0 0 0 0 0 0 0 0 0 0 0 127 0" result="hardAlpha"/>
<feOffset dx="-0.6" dy="0.4"/>
<feGaussianBlur stdDeviation="0.5"/>
<feComposite in2="hardAlpha" operator="arithmetic" k2="-1" k3="1"/>
<feColorMatrix type="matrix" values="0 0 0 0 0 0 0 0 0 0.698039 0 0 0 0 0.964706 0 0 0 1 0"/>
<feBlend mode="normal" in2="shape" result="effect1_innerShadow_18_12457"/>
</filter>
<filter id="filter4_i_18_12457" x="21.14" y="18.7188" width="2.6" height="2.4" filterUnits="userSpaceOnUse" color-interpolation-filters="sRGB">
<feFlood flood-opacity="0" result="BackgroundImageFix"/>
<feBlend mode="normal" in="SourceGraphic" in2="BackgroundImageFix" result="shape"/>
<feColorMatrix in="SourceAlpha" type="matrix" values="0 0 0 0 0 0 0 0 0 0 0 0 0 0 0 0 0 0 127 0" result="hardAlpha"/>
<feOffset dx="-0.6" dy="0.4"/>
<feGaussianBlur stdDeviation="0.5"/>
<feComposite in2="hardAlpha" operator="arithmetic" k2="-1" k3="1"/>
<feColorMatrix type="matrix" values="0 0 0 0 0 0 0 0 0 0.698039 0 0 0 0 0.964706 0 0 0 1 0"/>
<feBlend mode="normal" in2="shape" result="effect1_innerShadow_18_12457"/>
</filter>
<filter id="filter5_i_18_12457" x="25.14" y="18.7188" width="2.6" height="2.4" filterUnits="userSpaceOnUse" color-interpolation-filters="sRGB">
<feFlood flood-opacity="0" result="BackgroundImageFix"/>
<feBlend mode="normal" in="SourceGraphic" in2="BackgroundImageFix" result="shape"/>
<feColorMatrix in="SourceAlpha" type="matrix" values="0 0 0 0 0 0 0 0 0 0 0 0 0 0 0 0 0 0 127 0" result="hardAlpha"/>
<feOffset dx="-0.6" dy="0.4"/>
<feGaussianBlur stdDeviation="0.5"/>
<feComposite in2="hardAlpha" operator="arithmetic" k2="-1" k3="1"/>
<feColorMatrix type="matrix" values="0 0 0 0 0 0 0 0 0 0.698039 0 0 0 0 0.964706 0 0 0 1 0"/>
<feBlend mode="normal" in2="shape" result="effect1_innerShadow_18_12457"/>
</filter>
<filter id="filter6_i_18_12457" x="23.14" y="11" width="2.6" height="2.6" filterUnits="userSpaceOnUse" color-interpolation-filters="sRGB">
<feFlood flood-opacity="0" result="BackgroundImageFix"/>
<feBlend mode="normal" in="SourceGraphic" in2="BackgroundImageFix" result="shape"/>
<feColorMatrix in="SourceAlpha" type="matrix" values="0 0 0 0 0 0 0 0 0 0 0 0 0 0 0 0 0 0 127 0" result="hardAlpha"/>
<feOffset dx="-0.6" dy="0.6"/>
<feGaussianBlur stdDeviation="0.5"/>
<feComposite in2="hardAlpha" operator="arithmetic" k2="-1" k3="1"/>
<feColorMatrix type="matrix" values="0 0 0 0 0 0 0 0 0 0.607843 0 0 0 0 0.945098 0 0 0 1 0"/>
<feBlend mode="normal" in2="shape" result="effect1_innerShadow_18_12457"/>
</filter>
<linearGradient id="paint0_linear_18_12457" x1="28.49" y1="31" x2="9.78264" y2="26.1162" gradientUnits="userSpaceOnUse">
<stop stop-color="#D3D2D2"/>
<stop offset="0.896686" stop-color="white"/>
<stop offset="0.980595" stop-color="#636363"/>
</linearGradient>
<linearGradient id="paint1_linear_18_12457" x1="15.1373" y1="12.9781" x2="29.99" y2="12.9781" gradientUnits="userSpaceOnUse">
<stop stop-color="#E3DBE9"/>
<stop offset="1" stop-color="#E6DDED"/>
</linearGradient>
<linearGradient id="paint2_linear_18_12457" x1="21.99" y1="9" x2="21.99" y2="9.4989" gradientUnits="userSpaceOnUse">
<stop stop-color="#F0EBF3"/>
<stop offset="1" stop-color="#F0EBF3" stop-opacity="0"/>
</linearGradient>
<linearGradient id="paint3_linear_18_12457" x1="14.5686" y1="12.8983" x2="14.9515" y2="13.0076" gradientUnits="userSpaceOnUse">
<stop offset="0.0985728" stop-color="#A49FA7"/>
<stop offset="1" stop-color="#A49FA7" stop-opacity="0"/>
</linearGradient>
<linearGradient id="paint4_linear_18_12457" x1="3.0353" y1="20.8575" x2="29.99" y2="20.8575" gradientUnits="userSpaceOnUse">
<stop stop-color="#CFC9D9"/>
<stop offset="1" stop-color="#E1D8EA"/>
</linearGradient>
<linearGradient id="paint5_linear_18_12457" x1="16.0887" y1="16" x2="16.0887" y2="17.2755" gradientUnits="userSpaceOnUse">
<stop stop-color="#E7E3EA"/>
<stop offset="1" stop-color="#E7E3EA" stop-opacity="0"/>
</linearGradient>
<linearGradient id="paint6_linear_18_12457" x1="3.37972" y1="21.2019" x2="4.43021" y2="20.8747" gradientUnits="userSpaceOnUse">
<stop stop-color="#8E8B9C"/>
<stop offset="1" stop-color="#8E8B9C" stop-opacity="0"/>
</linearGradient>
<linearGradient id="paint7_linear_18_12457" x1="15.8478" y1="23" x2="15.8478" y2="30" gradientUnits="userSpaceOnUse">
<stop stop-color="#FB4659"/>
<stop offset="1" stop-color="#DF4375"/>
</linearGradient>
<linearGradient id="paint8_linear_18_12457" x1="5.30849" y1="26.8505" x2="6.16955" y2="26.6266" gradientUnits="userSpaceOnUse">
<stop stop-color="#883757"/>
<stop offset="1" stop-color="#883757" stop-opacity="0"/>
</linearGradient>
<linearGradient id="paint9_linear_18_12457" x1="8.75272" y1="15.5" x2="26.1805" y2="15.5" gradientUnits="userSpaceOnUse">
<stop stop-color="#58525B"/>
<stop offset="1" stop-color="#725D87"/>
</linearGradient>
<linearGradient id="paint10_linear_18_12457" x1="4.98999" y1="16" x2="5.91058" y2="16" gradientUnits="userSpaceOnUse">
<stop stop-color="#3D3940"/>
<stop offset="1" stop-color="#3D3940" stop-opacity="0"/>
</linearGradient>
<linearGradient id="paint11_linear_18_12457" x1="18.8392" y1="30.29" x2="18.8392" y2="28.1251" gradientUnits="userSpaceOnUse">
<stop stop-color="#4F96F2"/>
<stop offset="1" stop-color="#5092EB"/>
</linearGradient>
<linearGradient id="paint12_linear_18_12457" x1="26.99" y1="5.37498" x2="21.8025" y2="5.37498" gradientUnits="userSpaceOnUse">
<stop stop-color="#6D5882"/>
<stop offset="1" stop-color="#484050"/>
</linearGradient>
<linearGradient id="paint13_linear_18_12457" x1="26.99" y1="5.46873" x2="26.49" y2="5.46873" gradientUnits="userSpaceOnUse">
<stop stop-color="#836E98"/>
<stop offset="1" stop-color="#836E98" stop-opacity="0"/>
</linearGradient>
<linearGradient id="paint14_linear_18_12457" x1="22.99" y1="18" x2="16.0368" y2="13.6987" gradientUnits="userSpaceOnUse">
<stop stop-color="#D3D2D2"/>
<stop offset="0.833497" stop-color="white"/>
<stop offset="1" stop-color="#636363"/>
</linearGradient>
<linearGradient id="paint15_linear_18_12457" x1="21.0173" y1="7.46483" x2="21.3025" y2="7.66014" gradientUnits="userSpaceOnUse">
<stop stop-color="#B5B1B8"/>
<stop offset="1" stop-color="#B5B1B8" stop-opacity="0"/>
</linearGradient>
<linearGradient id="paint16_linear_18_12457" x1="26.99" y1="8.31248" x2="26.4587" y2="8.31248" gradientUnits="userSpaceOnUse">
<stop stop-color="#FBF8FE"/>
<stop offset="1" stop-color="#FBF8FE" stop-opacity="0"/>
</linearGradient>
</defs>
</svg>

<svg width="32" height="32" fill="none" xmlns="http://www.w3.org/2000/svg"><path d="M16.125 9H29.99v6h-16l1.565-5.56a.592.592 0 0 1 .57-.44Z" fill="url(#a)"/><path d="M16.125 9H29.99v6h-16l1.565-5.56a.592.592 0 0 1 .57-.44Z" fill="url(#b)"/><path d="M16.125 9H29.99v6h-16l1.565-5.56a.592.592 0 0 1 .57-.44Z" fill="url(#c)"/><path d="M16.125 9H29.99v6h-16l1.565-5.56a.592.592 0 0 1 .57-.44Z" fill="url(#d)"/><g filter="url(#e)"><path d="M21.99 12c0 1 0-1 0 0 0-1-.46-1-1-1h-5.876l-.558 2h6.434c.54-.01 1 0 1-1Z" fill="#56E6FF"/></g><path d="M29.99 16H3.203c-.675 0-1.158.642-.977 1.284L3.99 23h26v-7Z" fill="url(#f)"/><path d="M29.99 16H3.203c-.675 0-1.158.642-.977 1.284L3.99 23h26v-7Z" fill="url(#g)"/><path d="M29.99 16H3.203c-.675 0-1.158.642-.977 1.284L3.99 23h26v-7Z" fill="url(#h)"/><path d="m3.99 23 1.801 6.273c.12.428.517.727.965.727h22.229a1 1 0 0 0 1.005-.996V23h-26Z" fill="url(#i)"/><path d="m3.99 23 1.801 6.273c.12.428.517.727.965.727h22.229a1 1 0 0 0 1.005-.996V23h-26Z" fill="url(#j)"/><path d="M29.99 16h-25v-.414c0-.323.26-.586.58-.586h24.42v1Z" fill="url(#k)"/><path d="M29.99 16h-25v-.414c0-.323.26-.586.58-.586h24.42v1Z" fill="url(#l)"/><g filter="url(#m)"><path d="M30 27.68c-1.75 0-1.75 1.12-3.51 1.12-1.75 0-1.75-1.12-3.51-1.12-1.75 0-1.75 1.12-3.5 1.12s-1.75-1.12-3.5-1.12-1.75 1.12-3.5 1.12-1.75-1.12-3.5-1.12-1.75 1.12-3.49 1.12c-1.75 0-1.75-1.12-3.5-1.12V30h28l.01-2.32Z" fill="url(#n)"/></g><path d="M26.98 4.412A.405.405 0 0 0 26.586 4h-2.33c-.587 0-1.055.289-1.433.844L21.99 6h5V4.412h-.01Z" fill="url(#o)"/><path d="M26.98 4.412A.405.405 0 0 0 26.586 4h-2.33c-.587 0-1.055.289-1.433.844L21.99 6h5V4.412h-.01Z" fill="url(#p)"/><path d="m21.99 6-2 3h7V6h-5Z" fill="url(#q)"/><path d="m21.99 6-2 3h7V6h-5Z" fill="#E1D9E7"/><path d="m21.99 6-2 3h7V6h-5Z" fill="url(#r)"/><path d="m21.99 6-2 3h7V6h-5Z" fill="url(#s)"/><g filter="url(#t)"><rect x="13.74" y="18.719" width="2" height="2" rx=".5" fill="#63FAFF"/></g><g filter="url(#u)"><rect x="17.74" y="18.719" width="2" height="2" rx=".5" fill="#63FAFF"/></g><g filter="url(#v)"><rect x="21.74" y="18.719" width="2" height="2" rx=".5" fill="#63FAFF"/></g><g filter="url(#w)"><rect x="25.74" y="18.719" width="2" height="2" rx=".5" fill="#63FAFF"/></g><g filter="url(#x)"><rect x="23.74" y="11" width="2" height="2" rx=".5" fill="#63FAFF"/></g><defs><linearGradient id="a" x1="28.49" y1="31" x2="9.783" y2="26.116" gradientUnits="userSpaceOnUse"><stop stop-color="#D3D2D2"/><stop offset=".897" stop-color="#fff"/><stop offset=".981" stop-color="#636363"/></linearGradient><linearGradient id="b" x1="15.137" y1="12.978" x2="29.99" y2="12.978" gradientUnits="userSpaceOnUse"><stop stop-color="#E3DBE9"/><stop offset="1" stop-color="#E6DDED"/></linearGradient><linearGradient id="c" x1="21.99" y1="9" x2="21.99" y2="9.499" gradientUnits="userSpaceOnUse"><stop stop-color="#F0EBF3"/><stop offset="1" stop-color="#F0EBF3" stop-opacity="0"/></linearGradient><linearGradient id="d" x1="14.569" y1="12.898" x2="14.951" y2="13.008" gradientUnits="userSpaceOnUse"><stop offset=".099" stop-color="#A49FA7"/><stop offset="1" stop-color="#A49FA7" stop-opacity="0"/></linearGradient><linearGradient id="f" x1="3.035" y1="20.858" x2="29.99" y2="20.858" gradientUnits="userSpaceOnUse"><stop stop-color="#CFC9D9"/><stop offset="1" stop-color="#E1D8EA"/></linearGradient><linearGradient id="g" x1="16.089" y1="16" x2="16.089" y2="17.276" gradientUnits="userSpaceOnUse"><stop stop-color="#E7E3EA"/><stop offset="1" stop-color="#E7E3EA" stop-opacity="0"/></linearGradient><linearGradient id="h" x1="3.38" y1="21.202" x2="4.43" y2="20.875" gradientUnits="userSpaceOnUse"><stop stop-color="#8E8B9C"/><stop offset="1" stop-color="#8E8B9C" stop-opacity="0"/></linearGradient><linearGradient id="i" x1="15.848" y1="23" x2="15.848" y2="30" gradientUnits="userSpaceOnUse"><stop stop-color="#FB4659"/><stop offset="1" stop-color="#DF4375"/></linearGradient><linearGradient id="j" x1="5.308" y1="26.851" x2="6.17" y2="26.627" gradientUnits="userSpaceOnUse"><stop stop-color="#883757"/><stop offset="1" stop-color="#883757" stop-opacity="0"/></linearGradient><linearGradient id="k" x1="8.753" y1="15.5" x2="26.18" y2="15.5" gradientUnits="userSpaceOnUse"><stop stop-color="#58525B"/><stop offset="1" stop-color="#725D87"/></linearGradient><linearGradient id="l" x1="4.99" y1="16" x2="5.911" y2="16" gradientUnits="userSpaceOnUse"><stop stop-color="#3D3940"/><stop offset="1" stop-color="#3D3940" stop-opacity="0"/></linearGradient><linearGradient id="n" x1="18.839" y1="30.29" x2="18.839" y2="28.125" gradientUnits="userSpaceOnUse"><stop stop-color="#4F96F2"/><stop offset="1" stop-color="#5092EB"/></linearGradient><linearGradient id="o" x1="26.99" y1="5.375" x2="21.802" y2="5.375" gradientUnits="userSpaceOnUse"><stop stop-color="#6D5882"/><stop offset="1" stop-color="#484050"/></linearGradient><linearGradient id="p" x1="26.99" y1="5.469" x2="26.49" y2="5.469" gradientUnits="userSpaceOnUse"><stop stop-color="#836E98"/><stop offset="1" stop-color="#836E98" stop-opacity="0"/></linearGradient><linearGradient id="q" x1="22.99" y1="18" x2="16.037" y2="13.699" gradientUnits="userSpaceOnUse"><stop stop-color="#D3D2D2"/><stop offset=".833" stop-color="#fff"/><stop offset="1" stop-color="#636363"/></linearGradient><linearGradient id="r" x1="21.017" y1="7.465" x2="21.302" y2="7.66" gradientUnits="userSpaceOnUse"><stop stop-color="#B5B1B8"/><stop offset="1" stop-color="#B5B1B8" stop-opacity="0"/></linearGradient><linearGradient id="s" x1="26.99" y1="8.312" x2="26.459" y2="8.312" gradientUnits="userSpaceOnUse"><stop stop-color="#FBF8FE"/><stop offset="1" stop-color="#FBF8FE" stop-opacity="0"/></linearGradient><filter id="e" x="13.957" y="11" width="8.033" height="2.3" filterUnits="userSpaceOnUse" color-interpolation-filters="sRGB"><feFlood flood-opacity="0" result="BackgroundImageFix"/><feBlend in="SourceGraphic" in2="BackgroundImageFix" result="shape"/><feColorMatrix in="SourceAlpha" values="0 0 0 0 0 0 0 0 0 0 0 0 0 0 0 0 0 0 127 0" result="hardAlpha"/><feOffset dx="-.6" dy=".3"/><feGaussianBlur stdDeviation=".4"/><feComposite in2="hardAlpha" operator="arithmetic" k2="-1" k3="1"/><feColorMatrix values="0 0 0 0 0 0 0 0 0 0.623529 0 0 0 0 0.894118 0 0 0 1 0"/><feBlend in2="shape" result="effect1_innerShadow_18_12457"/></filter><filter id="m" x="1.39" y="27.68" width="28.61" height="2.92" filterUnits="userSpaceOnUse" color-interpolation-filters="sRGB"><feFlood flood-opacity="0" result="BackgroundImageFix"/><feBlend in="SourceGraphic" in2="BackgroundImageFix" result="shape"/><feColorMatrix in="SourceAlpha" values="0 0 0 0 0 0 0 0 0 0 0 0 0 0 0 0 0 0 127 0" result="hardAlpha"/><feOffset dx="-.6" dy=".6"/><feGaussianBlur stdDeviation=".3"/><feComposite in2="hardAlpha" operator="arithmetic" k2="-1" k3="1"/><feColorMatrix values="0 0 0 0 0.384314 0 0 0 0 0.67451 0 0 0 0 0.996078 0 0 0 1 0"/><feBlend in2="shape" result="effect1_innerShadow_18_12457"/><feColorMatrix in="SourceAlpha" values="0 0 0 0 0 0 0 0 0 0 0 0 0 0 0 0 0 0 127 0" result="hardAlpha"/><feOffset dy=".4"/><feGaussianBlur stdDeviation=".2"/><feComposite in2="hardAlpha" operator="arithmetic" k2="-1" k3="1"/><feColorMatrix values="0 0 0 0 0.305882 0 0 0 0 0.556863 0 0 0 0 0.882353 0 0 0 1 0"/><feBlend in2="effect1_innerShadow_18_12457" result="effect2_innerShadow_18_12457"/></filter><filter id="t" x="13.14" y="18.719" width="2.6" height="2.4" filterUnits="userSpaceOnUse" color-interpolation-filters="sRGB"><feFlood flood-opacity="0" result="BackgroundImageFix"/><feBlend in="SourceGraphic" in2="BackgroundImageFix" result="shape"/><feColorMatrix in="SourceAlpha" values="0 0 0 0 0 0 0 0 0 0 0 0 0 0 0 0 0 0 127 0" result="hardAlpha"/><feOffset dx="-.6" dy=".4"/><feGaussianBlur stdDeviation=".5"/><feComposite in2="hardAlpha" operator="arithmetic" k2="-1" k3="1"/><feColorMatrix values="0 0 0 0 0 0 0 0 0 0.698039 0 0 0 0 0.964706 0 0 0 1 0"/><feBlend in2="shape" result="effect1_innerShadow_18_12457"/></filter><filter id="u" x="17.14" y="18.719" width="2.6" height="2.4" filterUnits="userSpaceOnUse" color-interpolation-filters="sRGB"><feFlood flood-opacity="0" result="BackgroundImageFix"/><feBlend in="SourceGraphic" in2="BackgroundImageFix" result="shape"/><feColorMatrix in="SourceAlpha" values="0 0 0 0 0 0 0 0 0 0 0 0 0 0 0 0 0 0 127 0" result="hardAlpha"/><feOffset dx="-.6" dy=".4"/><feGaussianBlur stdDeviation=".5"/><feComposite in2="hardAlpha" operator="arithmetic" k2="-1" k3="1"/><feColorMatrix values="0 0 0 0 0 0 0 0 0 0.698039 0 0 0 0 0.964706 0 0 0 1 0"/><feBlend in2="shape" result="effect1_innerShadow_18_12457"/></filter><filter id="v" x="21.14" y="18.719" width="2.6" height="2.4" filterUnits="userSpaceOnUse" color-interpolation-filters="sRGB"><feFlood flood-opacity="0" result="BackgroundImageFix"/><feBlend in="SourceGraphic" in2="BackgroundImageFix" result="shape"/><feColorMatrix in="SourceAlpha" values="0 0 0 0 0 0 0 0 0 0 0 0 0 0 0 0 0 0 127 0" result="hardAlpha"/><feOffset dx="-.6" dy=".4"/><feGaussianBlur stdDeviation=".5"/><feComposite in2="hardAlpha" operator="arithmetic" k2="-1" k3="1"/><feColorMatrix values="0 0 0 0 0 0 0 0 0 0.698039 0 0 0 0 0.964706 0 0 0 1 0"/><feBlend in2="shape" result="effect1_innerShadow_18_12457"/></filter><filter id="w" x="25.14" y="18.719" width="2.6" height="2.4" filterUnits="userSpaceOnUse" color-interpolation-filters="sRGB"><feFlood flood-opacity="0" result="BackgroundImageFix"/><feBlend in="SourceGraphic" in2="BackgroundImageFix" result="shape"/><feColorMatrix in="SourceAlpha" values="0 0 0 0 0 0 0 0 0 0 0 0 0 0 0 0 0 0 127 0" result="hardAlpha"/><feOffset dx="-.6" dy=".4"/><feGaussianBlur stdDeviation=".5"/><feComposite in2="hardAlpha" operator="arithmetic" k2="-1" k3="1"/><feColorMatrix values="0 0 0 0 0 0 0 0 0 0.698039 0 0 0 0 0.964706 0 0 0 1 0"/><feBlend in2="shape" result="effect1_innerShadow_18_12457"/></filter><filter id="x" x="23.14" y="11" width="2.6" height="2.6" filterUnits="userSpaceOnUse" color-interpolation-filters="sRGB"><feFlood flood-opacity="0" result="BackgroundImageFix"/><feBlend in="SourceGraphic" in2="BackgroundImageFix" result="shape"/><feColorMatrix in="SourceAlpha" values="0 0 0 0 0 0 0 0 0 0 0 0 0 0 0 0 0 0 127 0" result="hardAlpha"/><feOffset dx="-.6" dy=".6"/><feGaussianBlur stdDeviation=".5"/><feComposite in2="hardAlpha" operator="arithmetic" k2="-1" k3="1"/><feColorMatrix values="0 0 0 0 0 0 0 0 0 0.607843 0 0 0 0 0.945098 0 0 0 1 0"/><feBlend in2="shape" result="effect1_innerShadow_18_12457"/></filter></defs></svg>
